apps/www/public/images/ga/partners/fly--dark.svg

<svg width="300" height="89" viewBox="0 0 300 89" fill="none" xmlns="http://www.w3.org/2000/svg">
<g clip-path="url(#clip0_868_2110)">
<path fill-rule="evenodd" clip-rule="evenodd" d="M66.522 11.7422H77.476C87.219 11.7422 95.129 19.6522 95.129 29.3952V67.9122C95.129 77.6552 87.219 85.5652 77.476 85.5652H76.613C71.598 84.7812 69.423 83.2772 67.743 82.0062L53.816 70.5552C53.4665 70.2742 53.0315 70.1211 52.583 70.1211C52.1345 70.1211 51.6995 70.2742 51.35 70.5552L46.826 74.2762L34.083 63.7982C33.7343 63.5163 33.2994 63.3626 32.851 63.3626C32.4026 63.3626 31.9677 63.5163 31.619 63.7982L13.915 79.3712C10.353 82.2692 7.996 81.7342 6.468 81.5662C2.52 78.3262 0 73.4112 0 67.9122V29.3952C0 19.6522 7.91 11.7422 17.654 11.7422H28.584L28.564 11.7862L28.196 12.8602L28.081 13.2282L27.585 15.4292L27.517 15.8142L27.299 18.0182L27.27 18.6232L27.265 18.8352L27.286 19.8452L27.336 20.4382L27.459 21.3642L27.615 22.1992L27.801 22.9672L28.042 23.7992L28.667 25.5602L28.874 26.0882L29.963 28.3892L30.347 29.0962L31.607 31.2582L32.089 32.0382L33.847 34.6262L34.1 34.9692L36.388 37.9462L37.127 38.8622L39.738 41.9152L40.275 42.5032L42.428 44.8192L43.28 45.7022L44.689 47.1022L44.407 47.3382L44.23 47.4972C43.752 47.9432 43.298 48.4172 42.873 48.9152C42.668 49.1562 42.473 49.4052 42.289 49.6612C42.0073 50.053 41.7549 50.4651 41.534 50.8942C41.4217 51.1172 41.3209 51.3459 41.232 51.5792C41.0029 52.1751 40.8651 52.8022 40.823 53.4392L40.815 53.9902C40.835 54.7662 40.993 55.5322 41.282 56.2532C41.574 56.9832 42.001 57.6522 42.54 58.2262C42.932 58.6432 43.378 59.0072 43.867 59.3062C44.2835 59.5613 44.7264 59.7705 45.188 59.9302C46.1903 60.2702 47.2539 60.3912 48.307 60.2852H48.312C49.2107 60.1979 50.0843 59.9385 50.885 59.5212C51.23 59.3382 51.559 59.1262 51.867 58.8852C52.7499 58.1987 53.4338 57.2891 53.848 56.2502C54.173 55.4402 54.332 54.5752 54.318 53.7042L54.292 53.2482C54.2331 52.6467 54.0897 52.0566 53.866 51.4952C53.7689 51.2508 53.6587 51.0118 53.536 50.7792C53.3077 50.3509 53.048 49.9401 52.759 49.5502C52.6271 49.3715 52.4904 49.1965 52.349 49.0252C51.8791 48.4638 51.373 47.9337 50.834 47.4382L50.452 47.1132L51.098 46.4762L53.872 43.5792L54.831 42.5262L56.322 40.8482L57.292 39.7142L58.675 38.0292L59.612 36.8522L60.987 35.0132L61.681 34.0622L62.666 32.5892L63.486 31.3352L65.032 28.6432L65.916 26.8772L65.941 26.8232L66.618 25.1852C66.627 25.164 66.6347 25.1423 66.641 25.1202L67.37 22.8462L67.446 22.5152L67.763 20.7052L67.824 20.2152L67.843 19.9152L67.865 18.7822L67.859 18.5712L67.801 17.5562L67.729 16.7682L67.37 14.4962C67.3644 14.4659 67.3574 14.4358 67.349 14.4062L66.888 12.7262L66.729 12.2592L66.522 11.7422ZM71.729 59.7742C70.6259 59.7944 69.5737 60.2417 68.7936 61.0218C68.0135 61.8019 67.5663 62.8541 67.546 63.9572C67.579 66.2382 69.447 68.1052 71.729 68.1382C74.01 68.1052 75.878 66.2382 75.913 63.9572C75.8925 62.854 75.445 61.8018 74.6648 61.0217C73.8845 60.2416 72.8322 59.7944 71.729 59.7742Z" fill="url(#paint0_radial_868_2110)"/>
<path fill-rule="evenodd" clip-rule="evenodd" d="M207.646 74.498L195.189 47.832C194.149 45.61 193.529 44.798 192.488 43.856L191.476 42.943C190.668 42.16 190.138 41.435 190.138 40.574C190.138 39.341 191.114 38.303 192.893 38.303H203.708C205.405 38.303 206.463 39.186 206.463 40.504C206.463 41.24 206.125 41.792 205.697 42.333C205.19 42.976 204.529 43.602 204.529 44.745C204.529 45.461 204.738 46.175 205.14 47.087L212.574 64.495L219.242 47.525C219.652 46.396 219.932 45.402 219.932 44.606C219.932 43.367 219.259 42.862 218.74 42.308C218.288 41.827 217.927 41.319 217.927 40.504C217.927 39.173 219.01 38.303 220.468 38.303H227.128C228.995 38.303 229.883 39.269 229.883 40.504C229.883 41.294 229.428 42.027 228.532 42.817L227.59 43.591C226.278 44.663 225.671 46.213 224.982 47.817L214.883 72.146C213.69 74.99 211.913 78.939 209.2 82.179C206.443 85.469 202.726 88.028 197.692 88.028C193.477 88.028 190.925 86.015 190.925 83.115C190.925 80.458 192.89 78.341 195.472 78.341C196.886 78.341 197.621 79.009 198.367 79.696C198.984 80.262 199.61 80.844 200.844 80.844C201.988 80.844 203.054 80.36 204.021 79.578C205.497 78.384 206.733 76.505 207.646 74.498ZM63.4939 85.565H41.9839C40.8819 85.565 40.7279 84.521 41.4369 83.927C51.9359 75.132 51.9109 75.103 51.9109 75.103C52.1187 74.9288 52.3812 74.8331 52.6524 74.8325C52.9235 74.832 53.1863 74.9266 53.3949 75.1C53.3949 75.1 63.2619 83.274 64.0409 83.927C64.7499 84.521 64.5969 85.565 63.4939 85.565ZM280.844 74.403C286.451 74.403 291.045 72.482 294.628 68.648C298.209 64.82 300 60.212 300 54.824C300 49.565 298.298 45.244 294.907 41.858C291.516 38.473 287.117 36.773 281.703 36.773C276.002 36.773 271.34 38.624 267.709 42.312C264.077 46.003 262.26 50.474 262.26 55.727C262.26 60.932 263.994 65.345 267.455 68.964C270.919 72.586 275.38 74.403 280.844 74.403ZM233.431 73.986C236.673 73.986 238.978 71.803 238.978 68.656C238.978 65.583 236.597 63.396 233.431 63.396C230.113 63.396 227.739 65.587 227.739 68.656C227.739 71.8 230.115 73.986 233.431 73.986ZM244.975 68.998L245.765 68.164C246.703 67.252 247.005 66.331 247.005 63.791V48.776C247.005 46.58 246.707 45.6 245.775 44.761L244.847 43.929C243.937 43.126 243.638 42.627 243.638 41.825C243.638 40.685 244.522 39.75 245.944 39.426L252.247 37.896C252.85 37.75 253.53 37.608 254.057 37.608C254.782 37.608 255.376 37.846 255.792 38.26C256.209 38.675 256.454 39.271 256.454 40.018V63.791C256.454 66.188 256.745 67.303 257.746 68.145C257.762 68.159 257.777 68.174 257.791 68.19L258.496 69.011C259.381 69.872 259.748 70.443 259.748 71.228C259.748 72.629 258.692 73.43 256.994 73.43H246.322C244.704 73.43 243.638 72.634 243.638 71.228C243.638 70.439 244.006 69.863 244.975 68.998ZM173.641 68.999L174.43 68.164C175.369 67.252 175.671 66.331 175.671 63.791V32.441C175.671 30.315 175.446 29.271 174.451 28.433L173.498 27.511C172.677 26.713 172.377 26.218 172.377 25.42C172.377 24.278 173.265 23.347 174.609 23.021L180.84 21.492C181.444 21.346 182.123 21.203 182.651 21.203C183.371 21.203 183.98 21.42 184.415 21.831C184.851 22.244 185.119 22.857 185.119 23.683V63.791C185.119 66.194 185.418 67.245 186.423 68.154L187.227 69.005C188.118 69.872 188.415 70.439 188.415 71.228C188.415 71.81 188.237 72.279 187.921 72.637C187.475 73.141 186.728 73.43 185.731 73.43H175.06C174.064 73.43 173.316 73.141 172.869 72.637C172.554 72.279 172.377 71.81 172.377 71.228C172.377 70.438 172.67 69.866 173.641 68.999ZM144.583 52.854V63.652C144.583 65.279 144.905 66.781 146.245 68.018L147.112 68.859C148.083 69.801 148.378 70.365 148.378 71.228C148.378 72.547 147.321 73.43 145.623 73.43H133.591C131.893 73.43 130.836 72.547 130.836 71.228C130.836 70.204 131.137 69.719 132.107 68.854L132.971 68.015C133.976 67.105 134.632 65.864 134.632 63.652V34.805C134.632 33.047 134.243 31.609 132.97 30.438L132.102 29.597C131.21 28.731 130.836 28.162 130.836 27.297C130.836 25.899 131.897 25.026 133.591 25.026H165.821C167.052 25.026 168.135 25.3 168.826 25.978C169.307 26.45 169.614 27.115 169.649 28.038L170.151 35.478C170.201 36.408 169.926 37.184 169.39 37.662C169.02 37.991 168.523 38.188 167.897 38.188C167.108 38.188 166.503 37.89 165.963 37.376C165.478 36.914 165.046 36.265 164.558 35.501C163.381 33.62 162.833 32.943 161.578 32.063C159.832 30.775 157.171 30.332 152.141 30.332C149.238 30.332 147.406 30.459 146.252 30.756C145.506 30.949 145.075 31.199 144.845 31.566C144.608 31.942 144.583 32.417 144.583 32.997V47.617H152.141C153.949 47.617 155.221 47.29 156.695 45.276L156.703 45.264C157.294 44.512 157.722 43.958 158.129 43.591C158.602 43.162 159.058 42.959 159.661 42.959C160.241 42.9668 160.794 43.2021 161.202 43.6142C161.611 44.0262 161.841 44.582 161.843 45.162V55.241C161.843 56.591 160.791 57.512 159.661 57.512C159.099 57.512 158.643 57.312 158.168 56.892C157.759 56.533 157.33 55.994 156.774 55.275C155.161 53.187 154.022 52.854 152.141 52.854H144.583ZM272.283 52.599C272.283 48.983 273.071 46.384 274.703 44.821C276.316 43.278 278.049 42.497 279.912 42.497C282.475 42.497 284.785 43.932 286.868 46.752C288.996 49.636 290.049 53.533 290.049 58.438C290.049 62.058 289.259 64.681 287.624 66.289C286.013 67.875 284.281 68.679 282.419 68.679C279.856 68.679 277.548 67.233 275.464 64.391C273.335 61.483 272.283 57.55 272.283 52.599ZM47.6249 50.485L47.7369 50.517C47.7719 50.535 47.8029 50.56 47.8349 50.582L47.9279 50.664C48.1569 50.875 48.3799 51.097 48.5939 51.324C48.7449 51.485 48.8919 51.651 49.0329 51.822C49.2129 52.039 49.3809 52.266 49.5339 52.502C49.5999 52.606 49.6609 52.712 49.7189 52.822C49.7689 52.917 49.8139 53.015 49.8529 53.115C49.9229 53.289 49.9749 53.472 49.9909 53.658L49.9879 54.008C49.9647 54.3239 49.8668 54.6297 49.7021 54.9002C49.5375 55.1708 49.3108 55.3983 49.0409 55.564C48.6909 55.776 48.2969 55.906 47.8899 55.943L47.4569 55.956L47.0919 55.924C46.9215 55.8988 46.7538 55.858 46.5909 55.802C46.425 55.7454 46.2657 55.671 46.1159 55.58L45.8309 55.371C45.495 55.0844 45.2662 54.6924 45.1819 54.259C45.1676 54.1858 45.1562 54.1121 45.1479 54.038L45.1379 53.705C45.1434 53.6144 45.1564 53.5244 45.1769 53.436C45.2269 53.241 45.2989 53.052 45.3889 52.873C45.5059 52.648 45.6389 52.431 45.7879 52.225C46.0349 51.892 46.3019 51.574 46.5879 51.274C46.7729 51.079 46.9609 50.89 47.1579 50.709L47.2989 50.582C47.3959 50.517 47.3969 50.517 47.5079 50.485H47.6249ZM46.9079 3.96298L46.9529 3.95898V42.97L46.8559 42.79C45.572 40.4144 44.3765 37.9921 43.2719 35.528C42.3761 33.5333 41.5648 31.5019 40.8399 29.439C40.2609 27.7958 39.7719 26.1223 39.3749 24.426C39.0659 23.078 38.8299 21.711 38.7329 20.33C38.6951 19.7405 38.6837 19.1495 38.6989 18.559C38.7079 18.045 38.7289 17.532 38.7619 17.018C38.8129 16.211 38.8949 15.405 39.0129 14.606C39.1069 13.977 39.2229 13.35 39.3659 12.73C39.4799 12.238 39.6119 11.749 39.7629 11.268C39.9809 10.573 40.2409 9.89398 40.5449 9.23098C40.6559 8.99198 40.7749 8.75498 40.9009 8.52198C41.6539 7.12698 42.6759 5.84198 44.0139 4.98198C44.8836 4.41656 45.8758 4.06719 46.9079 3.96298ZM51.9669 4.06098L54.5909 4.80998C55.8118 5.25501 56.9741 5.84703 58.0519 6.57298C59.5177 7.56194 60.781 8.82187 61.7739 10.285C62.356 11.1549 62.8393 12.087 63.2149 13.064C63.761 14.5085 64.0987 16.0233 64.2179 17.563C64.2529 17.966 64.2729 18.37 64.2809 18.775C64.2899 19.15 64.2879 19.527 64.2579 19.902C64.1829 20.7422 64.0248 21.573 63.7859 22.382C63.5939 23.0439 63.3669 23.6951 63.1059 24.333C62.7818 25.1264 62.4214 25.9046 62.0259 26.665C61.1509 28.355 60.1449 29.971 59.0669 31.534C57.7311 33.4547 56.3072 35.3127 54.7999 37.102C53.1624 39.0543 51.455 40.9469 49.6809 42.776C50.8851 40.5186 52.0088 38.2191 53.0499 35.882C53.6287 34.5802 54.1749 33.2641 54.6879 31.935C55.2527 30.4752 55.7618 28.9945 56.2139 27.496C56.552 26.3735 56.8449 25.2379 57.0919 24.092C57.3009 23.108 57.4659 22.114 57.5679 21.114C57.6529 20.28 57.6849 19.441 57.6639 18.605C57.6559 18.0926 57.6369 17.5805 57.6069 17.069C57.4839 15.012 57.1709 12.961 56.5709 10.988C56.3441 10.2395 56.0678 9.50686 55.7439 8.79498C54.9759 7.12198 53.9039 5.55798 52.4529 4.41698L51.9669 4.06098ZM251.193 33.044C254.442 33.044 256.74 31.215 256.74 28.061C256.74 24.982 254.444 23.149 251.193 23.149C247.866 23.149 245.572 24.983 245.572 28.061C245.572 31.139 247.867 33.044 251.193 33.044Z" fill="white"/>
</g>
<defs>
<radialGradient id="paint0_radial_868_2110" cx="0" cy="0" r="1" gradientUnits="userSpaceOnUse" gradientTransform="translate(47.564 48.6532) scale(64.8945 69.4772)">
<stop stop-color="#BA7BF0"/>
<stop offset="0.43" stop-color="#996BEC"/>
<stop offset="1" stop-color="#5046E4"/>
</radialGradient>
<clipPath id="clip0_868_2110">
<rect width="300" height="89" fill="white"/>
</clipPath>
</defs>
</svg>

<svg xmlns="http://www.w3.org/2000/svg" width="300" height="89" fill="none" viewBox="0 0 300 89"><g fill-rule="evenodd" clip-path="url(#a)" clip-rule="evenodd"><path fill="url(#b)" d="M66.522 11.742h10.954c9.743 0 17.653 7.91 17.653 17.653v38.517c0 9.743-7.91 17.653-17.653 17.653h-.863c-5.015-.784-7.19-2.288-8.87-3.559l-13.927-11.45a1.97 1.97 0 0 0-2.466 0l-4.524 3.72-12.743-10.478a1.96 1.96 0 0 0-2.464 0L13.915 79.371c-3.562 2.898-5.919 2.363-7.447 2.195C2.52 78.326 0 73.411 0 67.912V29.395c0-9.743 7.91-17.653 17.654-17.653h10.93l-.02.044-.368 1.074-.115.368-.496 2.201-.068.385-.218 2.204-.029.605-.005.212.021 1.01.05.593.123.926.156.835.186.768.241.832.625 1.761.207.528 1.089 2.301.384.707 1.26 2.162.482.78 1.758 2.588.253.343 2.288 2.977.739.916 2.611 3.053.537.588 2.153 2.316.852.883 1.409 1.4-.282.236-.177.16c-.478.445-.932.92-1.357 1.417q-.308.362-.584.746a10 10 0 0 0-.755 1.233 7 7 0 0 0-.302.685 6.4 6.4 0 0 0-.409 1.86l-.008.551c.02.776.178 1.542.467 2.263.292.73.719 1.4 1.258 1.973.392.417.838.781 1.327 1.08.416.255.86.465 1.321.624a7.4 7.4 0 0 0 3.119.355h.005a7 7 0 0 0 2.573-.764q.519-.274.982-.636a6.3 6.3 0 0 0 1.981-2.635c.325-.81.484-1.675.47-2.546l-.026-.456a6.4 6.4 0 0 0-.426-1.753 7 7 0 0 0-.33-.716 10 10 0 0 0-.777-1.229 12 12 0 0 0-.41-.525 17 17 0 0 0-1.515-1.587l-.382-.325.646-.637 2.774-2.897.959-1.053 1.491-1.678.97-1.134 1.383-1.685.937-1.177 1.375-1.839.694-.95.985-1.474.82-1.254 1.546-2.692.884-1.766.025-.054.677-1.638a1 1 0 0 0 .023-.065l.729-2.274.076-.33.317-1.81.061-.49.019-.3.022-1.134-.006-.21-.058-1.016-.072-.788-.359-2.272a1 1 0 0 0-.021-.09l-.461-1.68-.159-.467zm5.207 48.032a4.26 4.26 0 0 0-4.183 4.183c.033 2.281 1.901 4.148 4.183 4.181 2.281-.033 4.149-1.9 4.184-4.18a4.263 4.263 0 0 0-4.184-4.184"/><path fill="#fff" d="m207.646 74.498-12.457-26.666c-1.04-2.222-1.66-3.034-2.701-3.976l-1.012-.913c-.808-.783-1.338-1.508-1.338-2.369 0-1.233.976-2.271 2.755-2.271h10.815c1.697 0 2.755.883 2.755 2.201 0 .736-.338 1.288-.766 1.829-.507.643-1.168 1.269-1.168 2.412 0 .716.209 1.43.611 2.342l7.434 17.408 6.668-16.97c.41-1.129.69-2.123.69-2.919 0-1.239-.673-1.744-1.192-2.298-.452-.481-.813-.989-.813-1.804 0-1.331 1.083-2.201 2.541-2.201h6.66c1.867 0 2.755.966 2.755 2.201 0 .79-.455 1.523-1.351 2.313l-.942.774c-1.312 1.072-1.919 2.622-2.608 4.226l-10.099 24.329c-1.193 2.844-2.97 6.793-5.683 10.033-2.757 3.29-6.474 5.849-11.508 5.849-4.215 0-6.767-2.013-6.767-4.913 0-2.657 1.965-4.774 4.547-4.774 1.414 0 2.149.668 2.895 1.355.617.566 1.243 1.148 2.477 1.148 1.144 0 2.21-.484 3.177-1.266 1.476-1.194 2.712-3.073 3.625-5.08M63.494 85.565h-21.51c-1.102 0-1.256-1.044-.547-1.638 10.499-8.795 10.474-8.824 10.474-8.824a1.16 1.16 0 0 1 1.484-.003s9.867 8.174 10.646 8.827c.709.594.556 1.638-.547 1.638m217.35-11.162q8.41-.002 13.784-5.755Q300 62.906 300 54.824c0-5.259-1.702-9.58-5.093-12.966s-7.79-5.085-13.204-5.085c-5.701 0-10.363 1.851-13.994 5.539q-5.449 5.536-5.449 13.415.002 7.808 5.195 13.237c3.464 3.622 7.925 5.439 13.389 5.439m-47.413-.417c3.242 0 5.547-2.183 5.547-5.33 0-3.073-2.381-5.26-5.547-5.26-3.318 0-5.692 2.191-5.692 5.26 0 3.144 2.376 5.33 5.692 5.33m11.544-4.988.79-.834c.938-.912 1.24-1.833 1.24-4.373V48.776c0-2.196-.298-3.176-1.23-4.015l-.928-.832c-.91-.803-1.209-1.302-1.209-2.104 0-1.14.884-2.075 2.306-2.399l6.303-1.53c.603-.146 1.283-.288 1.81-.288.725 0 1.319.238 1.735.652s.662 1.011.662 1.758v23.773c0 2.397.291 3.512 1.292 4.354a1 1 0 0 1 .045.045l.705.821c.885.861 1.252 1.432 1.252 2.217 0 1.401-1.056 2.202-2.754 2.202h-10.672c-1.618 0-2.684-.796-2.684-2.202 0-.789.368-1.365 1.337-2.23m-71.334.001.789-.835c.939-.912 1.241-1.833 1.241-4.373v-31.35c0-2.126-.225-3.17-1.22-4.008l-.953-.922c-.821-.798-1.121-1.293-1.121-2.091 0-1.142.888-2.073 2.232-2.399l6.231-1.529c.604-.146 1.283-.289 1.811-.289.72 0 1.329.217 1.764.628.436.413.704 1.026.704 1.852v40.108c0 2.403.299 3.454 1.304 4.363l.804.851c.891.867 1.188 1.434 1.188 2.223 0 .582-.178 1.051-.494 1.409-.446.504-1.193.793-2.19.793H175.06c-.996 0-1.744-.289-2.191-.793-.315-.358-.492-.827-.492-1.409 0-.79.293-1.362 1.264-2.229m-29.058-16.145v10.798c0 1.627.322 3.129 1.662 4.366l.867.841c.971.942 1.266 1.506 1.266 2.369 0 1.319-1.057 2.202-2.755 2.202h-12.032c-1.698 0-2.755-.883-2.755-2.202 0-1.024.301-1.509 1.271-2.374l.864-.839c1.005-.91 1.661-2.151 1.661-4.363V34.805c0-1.758-.389-3.196-1.662-4.367l-.868-.841c-.892-.866-1.266-1.435-1.266-2.3 0-1.398 1.061-2.271 2.755-2.271h32.23c1.231 0 2.314.274 3.005.952.481.472.788 1.137.823 2.06l.502 7.44c.05.93-.225 1.706-.761 2.184-.37.329-.867.526-1.493.526-.789 0-1.394-.298-1.934-.812-.485-.462-.917-1.111-1.405-1.875-1.177-1.881-1.725-2.558-2.98-3.438-1.746-1.288-4.407-1.731-9.437-1.731-2.903 0-4.735.127-5.889.424-.746.193-1.177.443-1.407.81-.237.376-.262.851-.262 1.431v14.62h7.558c1.808 0 3.08-.327 4.554-2.341l.008-.012c.591-.752 1.019-1.306 1.426-1.673.473-.429.929-.632 1.532-.632a2.21 2.21 0 0 1 2.182 2.203v10.079c0 1.35-1.052 2.271-2.182 2.271-.562 0-1.018-.2-1.493-.62-.409-.359-.838-.898-1.394-1.617-1.613-2.088-2.752-2.421-4.633-2.421zm127.7-.255c0-3.616.788-6.215 2.42-7.778 1.613-1.543 3.346-2.324 5.209-2.324 2.563 0 4.873 1.435 6.956 4.255 2.128 2.884 3.181 6.781 3.181 11.686 0 3.62-.79 6.243-2.425 7.851-1.611 1.586-3.343 2.39-5.205 2.39-2.563 0-4.871-1.446-6.955-4.288-2.129-2.908-3.181-6.841-3.181-11.792M47.625 50.485l.112.032c.035.018.066.043.098.065l.093.082q.344.318.666.66.226.241.439.498.271.326.5.68.1.156.186.32.075.143.134.293c.07.174.122.357.138.543l-.003.35a2 2 0 0 1-.947 1.556c-.35.212-.744.342-1.151.379l-.433.013-.365-.032a3 3 0 0 1-.501-.122 2.4 2.4 0 0 1-.475-.222l-.285-.209a1.95 1.95 0 0 1-.65-1.112 3 3 0 0 1-.033-.221l-.01-.333q.008-.135.039-.269.076-.293.212-.563.175-.338.399-.648.37-.5.8-.951.276-.293.57-.565l.14-.127c.098-.065.099-.065.21-.097zm-.717-46.522.045-.004V42.97l-.097-.18a109 109 0 0 1-3.584-7.262 78 78 0 0 1-2.432-6.089 48 48 0 0 1-1.465-5.013c-.31-1.348-.545-2.715-.642-4.096a20 20 0 0 1-.034-1.771q.014-.77.063-1.541.075-1.212.25-2.412c.095-.629.21-1.256.354-1.876q.17-.74.397-1.462.327-1.043.782-2.037.166-.359.356-.709c.753-1.395 1.775-2.68 3.113-3.54a6.5 6.5 0 0 1 2.894-1.019m5.059.098 2.624.749a16 16 0 0 1 3.46 1.763 13.9 13.9 0 0 1 3.723 3.712c.582.87 1.065 1.802 1.44 2.779.547 1.444.885 2.96 1.004 4.499q.052.604.063 1.212c.009.375.007.752-.023 1.127-.075.84-.233 1.671-.472 2.48a20 20 0 0 1-.68 1.951 28 28 0 0 1-1.08 2.332c-.875 1.69-1.881 3.306-2.96 4.869a76 76 0 0 1-4.266 5.568 106 106 0 0 1-5.12 5.674 108 108 0 0 0 3.37-6.894 86 86 0 0 0 1.638-3.947 62 62 0 0 0 1.526-4.439q.507-1.684.878-3.404c.209-.984.374-1.978.476-2.978q.128-1.253.096-2.509a36 36 0 0 0-.057-1.536c-.123-2.057-.436-4.108-1.036-6.081a18 18 0 0 0-.827-2.193c-.768-1.673-1.84-3.237-3.291-4.378zm199.226 28.983c3.249 0 5.547-1.829 5.547-4.983 0-3.079-2.296-4.912-5.547-4.912-3.327 0-5.621 1.834-5.621 4.912s2.295 4.983 5.621 4.983"/></g><defs><radialGradient id="b" cx="0" cy="0" r="1" gradientTransform="matrix(64.8945 0 0 69.4772 47.564 48.653)" gradientUnits="userSpaceOnUse"><stop stop-color="#ba7bf0"/><stop offset=".43" stop-color="#996bec"/><stop offset="1" stop-color="#5046e4"/></radialGradient><clipPath id="a"><path fill="#fff" d="M0 0h300v89H0z"/></clipPath></defs></svg>
